brandFactory_export/2.Regular/Link enlace_2Regular.svg

<?xml version="1.0" encoding="UTF-8"?>
<svg width="24px" height="24px" viewBox="0 0 24 24" version="1.1" xmlns="http://www.w3.org/2000/svg" xmlns:xlink="http://www.w3.org/1999/xlink">
    <title>2.Regular/Link enlace_2Regular</title>
    <g id="Symbols" stroke="none" stroke-width="1" fill="none" fill-rule="evenodd">
        <g id="2.Regular/Link-enlace_2Regular" fill="#5CB615" fill-rule="nonzero">
            <path d="M12.9915966,16.7831933 C13.2605042,16.4705882 13.7277311,16.4336134 14.0369748,16.7058824 C14.3462185,16.9747899 14.3798319,17.4453782 14.1142857,17.7579832 C13.6571429,18.292437 12.8638655,19.1462185 12.312605,19.7008403 C10.097479,21.9260504 8.42352941,23.0991597 6.88403361,23.4991597 C6.48403361,23.6033613 6.09411765,23.6537815 5.70756303,23.6537815 C4.37310924,23.6537815 3.1092437,23.0352941 1.86218487,21.7815126 C-1.61344538,18.2857143 0.178151261,15.0521008 3.93613445,11.2705882 C7.69411765,7.49243697 10.9109244,5.6907563 14.3831933,9.18655462 C15.5159664,10.3294118 16.1210084,11.4655462 16.2252101,12.6655462 C16.2621849,13.0756303 15.9596639,13.4386555 15.5529412,13.4756303 C15.1529412,13.4991597 14.7831933,13.2067227 14.7495798,12.7966387 C14.6756303,11.9596639 14.2151261,11.1226891 13.3378151,10.2420168 C12.1042017,8.99831933 10.994958,8.59159664 9.73781513,8.91428571 C8.48403361,9.24033613 6.97478992,10.3226891 4.98487395,12.3260504 C2.99495798,14.3294118 1.91932773,15.8453782 1.59663866,17.1058824 C1.27058824,18.3697479 1.67731092,19.4857143 2.91428571,20.7294118 C4.1512605,21.9731092 5.2605042,22.3798319 6.51428571,22.0537815 C7.76806723,21.7277311 9.27731092,20.6453782 11.2672269,18.6420168 C11.7848739,18.1210084 12.5613445,17.2840336 12.9915966,16.7831933 L12.9915966,16.7831933 Z M21.7647059,1.90588235 C23.3714286,3.52268908 23.9294118,5.17310924 23.4689076,6.95798319 C23.0689076,8.50756303 21.9058824,10.1915966 19.6907563,12.4201681 C17.3378151,14.7865546 15.1966387,16.3798319 13.0722689,16.3798319 C11.805042,16.3798319 10.5411765,15.8117647 9.24033613,14.5042017 C8.1512605,13.4117647 7.55630252,12.3226891 7.41176471,11.1731092 C7.36134454,10.7630252 7.65042017,10.389916 8.05714286,10.3428571 C8.4605042,10.302521 8.83361345,10.5815126 8.88403361,10.9915966 C8.98151261,11.794958 9.44201681,12.6016807 10.2857143,13.4521008 C12.6655462,15.8420168 14.692437,15.3344538 18.6386555,11.3680672 C22.5848739,7.39831933 23.0890756,5.35798319 20.712605,2.96470588 C18.3394958,0.574789916 16.3058824,1.0789916 12.3630252,5.0487395 C11.6705882,5.74789916 11.1092437,6.36302521 10.6453782,6.93109244 C10.3831933,7.24705882 9.91596639,7.29411765 9.6,7.03193277 C9.28403361,6.7697479 9.23697479,6.29915966 9.49915966,5.98319328 C9.99327731,5.37815126 10.5848739,4.72941176 11.3142857,3.99663866 C15.0722689,0.211764706 18.2890756,-1.58991597 21.7647059,1.90588235 Z" id="Link-enlace_2Regular"></path>
        </g>
    </g>
</svg>

<svg width="24" height="24" viewBox="0 0 24 24" xmlns="http://www.w3.org/2000/svg"><path d="M12.992 16.783a.735.735 0 011.045-.077c.31.269.343.74.077 1.052a42.31 42.31 0 01-1.801 1.943c-2.216 2.225-3.89 3.398-5.429 3.798-.4.104-.79.155-1.176.155-1.335 0-2.599-.619-3.846-1.872-3.475-3.496-1.684-6.73 2.074-10.511 3.758-3.779 6.975-5.58 10.447-2.084 1.133 1.142 1.738 2.279 1.842 3.479a.746.746 0 01-.672.81.756.756 0 01-.803-.68c-.074-.836-.535-1.673-1.412-2.554-1.234-1.244-2.343-1.65-3.6-1.328-1.254.326-2.763 1.409-4.753 3.412-1.99 2.003-3.066 3.52-3.388 4.78-.326 1.264.08 2.38 1.317 3.623 1.237 1.244 2.347 1.65 3.6 1.325 1.254-.326 2.763-1.409 4.753-3.412a42.545 42.545 0 001.725-1.859zm8.773-14.877c1.606 1.617 2.164 3.267 1.704 5.052-.4 1.55-1.563 3.234-3.778 5.462-2.353 2.367-4.494 3.96-6.619 3.96-1.267 0-2.53-.568-3.832-1.876-1.089-1.092-1.684-2.181-1.828-3.33a.74.74 0 01.645-.831.75.75 0 01.827.649c.098.803.558 1.61 1.402 2.46 2.38 2.39 4.406 1.882 8.353-2.084 3.946-3.97 4.45-6.01 2.074-8.403-2.374-2.39-4.407-1.886-8.35 2.084-.692.699-1.254 1.314-1.718 1.882a.742.742 0 01-1.045.1.746.746 0 01-.1-1.048 27.45 27.45 0 011.814-1.986C15.072.212 18.29-1.59 21.764 1.906z" fill="#5CB615" fill-rule="nonzero"/></svg>
